www/assets/icons/hourglass_disabled.svg

<svg width="24" height="24" viewBox="0 0 24 24" xmlns="http://www.w3.org/2000/svg" fill='currentColor'><path d="M8.70502 3.34009H16.705V6.84009L13.865 9.68009L15.115 10.9301L18.705 7.35009L18.695 7.34009H18.705V1.34009H6.70502V2.51009L8.70502 4.51009V3.34009Z"/><path d="M2.80502 1.44009L1.39502 2.85009L10.295 11.7501L6.70502 15.3401L6.71502 15.3501H6.70502V21.3401H18.705V20.1701L21.195 22.6601L22.605 21.2501L2.80502 1.44009ZM16.705 19.3401H8.70502V15.8401L11.545 13.0001L16.705 18.1701V19.3401Z"/></svg>

<svg xmlns="http://www.w3.org/2000/svg" width="24" height="24" viewBox="0 0 24 24" fill='currentColor'><path d="M8.705 3.34h8v3.5l-2.84 2.84 1.25 1.25 3.59-3.58-.01-.01h.01v-6h-12v1.17l2 2zm-5.9-1.9-1.41 1.41 8.9 8.9-3.59 3.59.01.01h-.01v5.99h12v-1.17l2.49 2.49 1.41-1.41zm13.9 17.9h-8v-3.5l2.84-2.84 5.16 5.17z"/></svg>
